data/icons/scalable/actions/job-title-symbolic.svg

<?xml version="1.0" encoding="UTF-8"?>
<svg height="16px" viewBox="0 0 16 16" width="16px" xmlns="http://www.w3.org/2000/svg">
    <g fill="#222222">
        <path d="m 3 2 c -1.644531 0 -3 1.355469 -3 3 v 6 c 0 1.644531 1.355469 3 3 3 h 10 c 1.644531 0 3 -1.355469 3 -3 v -6 c 0 -1.644531 -1.355469 -3 -3 -3 z m 0 2 h 10 c 0.570312 0 1 0.429688 1 1 v 6 c 0 0.570312 -0.429688 1 -1 1 h -10 c -0.570312 0 -1 -0.429688 -1 -1 v -6 c 0 -0.570312 0.429688 -1 1 -1 z m 0 0"/>
        <path d="m 6.5 5 c -1.375 0 -2.5 1.125 -2.5 2.5 c 0 0.332031 0.15625 0.628906 0.28125 0.933594 c -0.730469 0.433594 -1.28125 1.15625 -1.28125 2.066406 c 0 0.277344 0.222656 0.5 0.5 0.5 s 0.5 -0.222656 0.5 -0.5 c 0 -0.664062 0.417969 -1.210938 1.003906 -1.417969 c 0.148438 -0.050781 0.261719 -0.164062 0.308594 -0.3125 c 0.050781 -0.148437 0.027344 -0.308593 -0.058594 -0.4375 c -0.164062 -0.246093 -0.253906 -0.535156 -0.253906 -0.832031 c 0 -0.835938 0.664062 -1.5 1.5 -1.5 s 1.5 0.664062 1.5 1.5 c 0 0.296875 -0.089844 0.585938 -0.257812 0.832031 c -0.085938 0.128907 -0.105469 0.289063 -0.058594 0.4375 c 0.050781 0.148438 0.164062 0.265625 0.3125 0.3125 c 0.589844 0.207031 1.023437 0.757813 1.003906 1.40625 c -0.007812 0.273438 0.210938 0.503907 0.484375 0.511719 c 0.277344 0.007812 0.507813 -0.210938 0.515625 -0.488281 c 0.023438 -0.925781 -0.542969 -1.648438 -1.285156 -2.082031 c 0.125 -0.300782 0.285156 -0.597657 0.285156 -0.929688 c 0 -1.375 -1.125 -2.5 -2.5 -2.5 z m 0 0"/>
        <path d="m 10.515625 4.980469 h 1.898437 c 0.304688 0 0.550782 0.25 0.550782 0.554687 c 0 0.304688 -0.246094 0.554688 -0.550782 0.554688 h -1.898437 c -0.304687 0 -0.554687 -0.25 -0.554687 -0.554688 c 0 -0.304687 0.25 -0.554687 0.554687 -0.554687 z m 0 0"/>
        <path d="m 10.484375 6.984375 h 1.960937 c 0.289063 0 0.519532 0.230469 0.519532 0.519531 c 0 0.289063 -0.230469 0.523438 -0.519532 0.523438 h -1.960937 c -0.289063 0 -0.523437 -0.234375 -0.523437 -0.523438 c 0 -0.289062 0.234374 -0.519531 0.523437 -0.519531 z m 0 0"/>
    </g>
</svg>

<svg xmlns="http://www.w3.org/2000/svg" width="16" height="16" viewBox="0 0 16 16"><g fill="#222"><path d="M3 2C1.355 2 0 3.355 0 5v6c0 1.645 1.355 3 3 3h10c1.645 0 3-1.355 3-3V5c0-1.645-1.355-3-3-3zm0 2h10c.57 0 1 .43 1 1v6c0 .57-.43 1-1 1H3c-.57 0-1-.43-1-1V5c0-.57.43-1 1-1m0 0"/><path d="M6.5 5A2.507 2.507 0 0 0 4 7.5c0 .332.156.629.281.934C3.551 8.867 3 9.59 3 10.5c0 .277.223.5.5.5s.5-.223.5-.5c0-.664.418-1.21 1.004-1.418a.48.48 0 0 0 .309-.312.5.5 0 0 0-.06-.438A1.5 1.5 0 0 1 5 7.5C5 6.664 5.664 6 6.5 6a1.49 1.49 0 0 1 1.242 2.332.51.51 0 0 0-.058.438c.05.148.164.265.312.312.59.207 1.024.758 1.004 1.406a.5.5 0 0 0 1 .024c.023-.926-.543-1.649-1.285-2.082C8.84 8.129 9 7.832 9 7.5 9 6.125 7.875 5 6.5 5M10.516 4.98h1.898c.305 0 .55.25.55.555a.553.553 0 0 1-.55.555h-1.898a.557.557 0 0 1-.555-.555c0-.305.25-.555.555-.555M10.484 6.984h1.961c.29 0 .52.23.52.52a.52.52 0 0 1-.52.523h-1.96a.523.523 0 0 1-.524-.523c0-.29.234-.52.523-.52m0 0"/></g></svg>
